X:106
T:Cryin' Holy
C:Ricky Skaggs solo 
N:From "The New South"
R:bluegrass
L:1/8
Q:1/4=220
M:4/4
K:C
z2 B^c ^d^f dc | "B"B2 ^GB zG B2 | B^c B^F ^GB cd | ^d2 ^g^f bf2b | zb2d ^d^f ^g2 | 
"E"^g2 g2 ^fg fd | ^d^f ^gf =d^c B^G | "B"^F=F ^FB F=F ED | ^D[B2D2][BD] B^c ^d2 | 
^f2 A2 e2 f2 | {^c}^d2 B^F ^GA B2 | ^f2 A2 ef2d | ^dA B2 ^FA B2 | {d}^d2 ^DD E2 F2 | 
"F#7"^F2 ^f^g f^d ^cd | B^G BB ^dA ^fd | b2 [b6^d6] | z8 | z8 | z8 | 
K:C#
z8 | z8 | 
K:C
z8 | z8 | 


